dist/intermediate-svg/accommodation.svg

<?xml version="1.0" encoding="utf-8"?><svg width="24" height="24" fill="none" xmlns="http://www.w3.org/2000/svg" viewBox="0 0 24 24"><path d="M18 5.00012L10 8.00012V13.0001L18 16.0001V5.00012zM4 10.0001C4 8.89555 4.89543 8.00012 6 8.00012H10V13.0001H6C4.89543 13.0001 4 12.1047 4 11.0001V10.0001zM6 19.0001V13.0001H8V19.0001C8 19.5524 7.55228 20.0001 7 20.0001 6.44772 20.0001 6 19.5524 6 19.0001z" stroke="#333"/><rect x="18" y="4" width="2" height="13" rx="1" stroke="#0094FF"/></svg>

<?xml version="1.0" encoding="utf-8"?><svg width="24" height="24" fill="none" xmlns="http://www.w3.org/2000/svg" viewBox="0 0 24 24"><path d="M18 5l-8 3v5l8 3V5zM4 10a2 2 0 012-2h4v5H6a2 2 0 01-2-2v-1zM6 19v-6h2v6a1 1 0 11-2 0z" stroke="#333"/><rect x="18" y="4" width="2" height="13" rx="1" stroke="#0094FF"/></svg>
